X:1215
T:"The Bloom of Youth"  (reel)    1215
C:After Mr. Lawson
N:Several things on this one:
N:Changed note from E to G and deleted a quarternote A at beginning of second section
B:O'Neill's Music Of Ireland (The 1850) Lyon & Healy, Chicago, 1903 edition
Z:FROM O'NEILL'S TO NOTEWORTHY, FROM NOTEWORTHY TO ABC, MIDI AND .TXT BY VINCE
BRENNAN July 2003 (HTTP://WWW.SOSYOURMOM.COM)
I:abc2nwc
M:C|
L:1/8
K:G
G2(DG) EGDF|G2(BG) AGEF|G2(DG) EGBc|dBcA BGAF|
G2(DG) EGDF|G2(BG) AGEF|G2(DG) EGDc|dBAc (BG) G2||
gd  (3ddd edcA|BdAc BE E2|gd  (3ddd edcA|dBAc (BG) G2|
gd  (3ddd edcA|BdAc (BE) E2|cBcd efge|dBAc (BG) G2|]
